src/assets/images/beat-boxer/OBSTACLE_TOP.svg

<svg width="197" height="375" viewBox="0 0 197 375" fill="none" xmlns="http://www.w3.org/2000/svg">
<g clip-path="url(#clip0_9279_207090)">
<path d="M166.53 220.51H29.5C21.4919 220.51 15 227.002 15 235.01V345.37C15 353.378 21.4919 359.87 29.5 359.87H166.53C174.538 359.87 181.03 353.378 181.03 345.37V235.01C181.03 227.002 174.538 220.51 166.53 220.51Z" fill="white"/>
<path d="M166.53 205.51H122.54C124.94 201.35 126.32 196.53 126.32 191.38C126.32 178.35 117.51 167.38 105.52 164.09V7.5C105.52 3.36 102.16 0 98.02 0C93.88 0 90.52 3.36 90.52 7.5V164.1C78.53 167.39 69.72 178.36 69.72 191.39C69.72 196.54 71.1 201.36 73.5 205.52H29.5C13.23 205.52 0 218.75 0 235.02V345.38C0 361.65 13.23 374.88 29.5 374.88H166.53C182.8 374.88 196.03 361.65 196.03 345.38V235.02C196.03 218.75 182.8 205.52 166.53 205.52V205.51ZM90.52 180.41V182.11C90.52 186.25 93.88 189.61 98.02 189.61C102.16 189.61 105.52 186.25 105.52 182.11V180.41C109.02 182.81 111.32 186.83 111.32 191.39C111.32 198.72 105.35 204.69 98.02 204.69C90.69 204.69 84.72 198.72 84.72 191.39C84.72 186.84 87.02 182.81 90.52 180.41ZM181.03 345.37C181.03 353.37 174.53 359.87 166.53 359.87H29.5C21.5 359.87 15 353.37 15 345.37V235.01C15 227.01 21.5 220.51 29.5 220.51H166.53C174.53 220.51 181.03 227.01 181.03 235.01V345.37Z" fill="#FFC440"/>
<path d="M149.51 265.75L122.45 238.69C121.04 237.28 119.14 236.49 117.15 236.49H78.8803C76.8903 236.49 74.9803 237.28 73.5803 238.69L46.5203 265.75C45.1103 267.16 44.3203 269.06 44.3203 271.05V309.32C44.3203 311.31 45.1103 313.22 46.5203 314.62L73.5803 341.68C74.9903 343.09 76.8903 343.88 78.8803 343.88H117.15C119.14 343.88 121.05 343.09 122.45 341.68L149.51 314.62C150.92 313.21 151.71 311.31 151.71 309.32V271.05C151.71 269.06 150.92 267.15 149.51 265.75Z" fill="#FFC440"/>
<path d="M108.62 290.19L120.66 278.14C123.59 275.21 123.59 270.46 120.66 267.53C117.73 264.6 112.98 264.6 110.05 267.53L98.0096 279.57L85.9696 267.53C83.0396 264.6 78.2896 264.6 75.3596 267.53C72.4296 270.46 72.4296 275.21 75.3596 278.14L87.3996 290.19L75.3596 302.24C72.4296 305.17 72.4296 309.92 75.3596 312.85C76.8196 314.31 78.7396 315.05 80.6596 315.05C82.5796 315.05 84.4996 314.32 85.9596 312.85L97.9996 300.81L110.04 312.85C111.5 314.31 113.42 315.05 115.34 315.05C117.26 315.05 119.18 314.32 120.64 312.85C123.57 309.92 123.57 305.17 120.64 302.24L108.6 290.19H108.62Z" fill="#000066"/>
</g>
<defs>
<clipPath id="clip0_9279_207090">
<rect width="196.03" height="374.87" fill="white"/>
</clipPath>
</defs>
</svg>

<?xml version="1.0" encoding="UTF-8"?><svg id="Layer_2" xmlns="http://www.w3.org/2000/svg" viewBox="0 0 196.03 374.87"><defs><style>.cls-1{fill:none;}.cls-2{fill:#007f6f;}.cls-3{fill:#fff;}</style></defs><g id="Layer_1-2"><g><rect class="cls-3" x="15" y="220.51" width="166.03" height="139.36" rx="14.5" ry="14.5"/><g><rect class="cls-1" x="15" y="220.51" width="166.03" height="139.36" rx="14.5" ry="14.5"/><path class="cls-1" d="M98.01,204.69c7.33,0,13.3-5.97,13.3-13.3,0-4.55-2.3-8.58-5.8-10.98v1.7c0,4.14-3.36,7.5-7.5,7.5s-7.5-3.36-7.5-7.5v-1.7c-3.5,2.4-5.8,6.42-5.8,10.98,0,7.33,5.97,13.3,13.3,13.3Z"/><path class="cls-2" d="M166.53,205.51h-43.99c2.4-4.16,3.78-8.98,3.78-14.13,0-13.03-8.81-24-20.8-27.29V7.5c0-4.14-3.36-7.5-7.5-7.5s-7.5,3.36-7.5,7.5V164.1c-11.99,3.29-20.8,14.26-20.8,27.29,0,5.15,1.38,9.97,3.78,14.13H29.5c-16.27,0-29.5,13.23-29.5,29.5v110.36c0,16.27,13.23,29.5,29.5,29.5H166.53c16.27,0,29.5-13.23,29.5-29.5v-110.36c0-16.27-13.23-29.5-29.5-29.5Zm-76.01-25.1v1.7c0,4.14,3.36,7.5,7.5,7.5s7.5-3.36,7.5-7.5v-1.7c3.5,2.4,5.8,6.42,5.8,10.98,0,7.33-5.97,13.3-13.3,13.3s-13.3-5.97-13.3-13.3c0-4.55,2.3-8.58,5.8-10.98Zm90.51,164.96c0,8-6.5,14.5-14.5,14.5H29.5c-8,0-14.5-6.5-14.5-14.5v-110.36c0-8,6.5-14.5,14.5-14.5H166.53c8,0,14.5,6.5,14.5,14.5v110.36Z"/></g><path class="cls-2" d="M149.51,265.75l-27.06-27.06c-1.41-1.41-3.31-2.2-5.3-2.2h-38.27c-1.99,0-3.9,.79-5.3,2.2l-27.06,27.06c-1.41,1.41-2.2,3.31-2.2,5.3v38.27c0,1.99,.79,3.9,2.2,5.3l27.06,27.06c1.41,1.41,3.31,2.2,5.3,2.2h38.27c1.99,0,3.9-.79,5.3-2.2l27.06-27.06c1.41-1.41,2.2-3.31,2.2-5.3v-38.27c0-1.99-.79-3.9-2.2-5.3Z"/><path class="cls-3" d="M108.62,290.19l12.04-12.05c2.93-2.93,2.93-7.68,0-10.61-2.93-2.93-7.68-2.93-10.61,0l-12.04,12.04-12.04-12.04c-2.93-2.93-7.68-2.93-10.61,0-2.93,2.93-2.93,7.68,0,10.61l12.04,12.05-12.04,12.05c-2.93,2.93-2.93,7.68,0,10.61,1.46,1.46,3.38,2.2,5.3,2.2s3.84-.73,5.3-2.2l12.04-12.04,12.04,12.04c1.46,1.46,3.38,2.2,5.3,2.2s3.84-.73,5.3-2.2c2.93-2.93,2.93-7.68,0-10.61l-12.04-12.05Z"/></g></g></svg>
